svgs/light/starship.svg

<svg xmlns="http://www.w3.org/2000/svg" viewBox="0 0 640 512"><!--! Font Awesome Pro 6.4.0 by @fontawesome - https://fontawesome.com License - https://fontawesome.com/license (Commercial License) Copyright 2023 Fonticons, Inc. --><path d="M0 112C0 85.5 21.5 64 48 64H208c26.5 0 48 21.5 48 48s-21.5 48-48 48H161.2l47.6 34.6 60.1-8.2C296.8 114.8 366.5 64 448 64c106 0 192 86 192 192s-86 192-192 192c-81.5 0-151.2-50.8-179-122.4l-60.1-8.2L161.2 352H208c26.5 0 48 21.5 48 48s-21.5 48-48 48H48c-26.5 0-48-21.5-48-48s21.5-48 48-48h58.8L163 311.1l-21.5-2.9C115.5 304.6 96 282.3 96 256s19.5-48.6 45.5-52.2l21.5-2.9L106.8 160H48c-26.5 0-48-21.5-48-48zM48 96c-8.8 0-16 7.2-16 16s7.2 16 16 16H208c8.8 0 16-7.2 16-16s-7.2-16-16-16H48zm97.9 139.5C135.6 236.9 128 245.7 128 256s7.6 19.1 17.9 20.5l113.5 15.5c-2.2-11.6-3.4-23.7-3.4-35.9s1.2-24.3 3.4-35.9L145.9 235.5zM32 400c0 8.8 7.2 16 16 16H208c8.8 0 16-7.2 16-16s-7.2-16-16-16H48c-8.8 0-16 7.2-16 16zm416 16a160 160 0 1 0 0-320 160 160 0 1 0 0 320zm32-160a32 32 0 1 0 -64 0 32 32 0 1 0 64 0zm-96 0a64 64 0 1 1 128 0 64 64 0 1 1 -128 0z"/></svg>

<svg xmlns="http://www.w3.org/2000/svg" viewBox="0 0 640 512"><!--! Font Awesome Pro 6.3.0 by @fontawesome - https://fontawesome.com License - https://fontawesome.com/license (Commercial License) Copyright 2023 Fonticons, Inc. --><path d="M512 256C512 291.3 483.3 320 448 320C412.7 320 384 291.3 384 256C384 220.7 412.7 192 448 192C483.3 192 512 220.7 512 256zM448 224C430.3 224 416 238.3 416 256C416 273.7 430.3 288 448 288C465.7 288 480 273.7 480 256C480 238.3 465.7 224 448 224zM0 112C0 85.49 21.49 64 48 64H208C234.5 64 256 85.49 256 112C256 138.5 234.5 160 208 160H161.2L208.8 194.6L268.1 186.4C296.8 114.8 366.5 64 448 64C554 64 640 149.1 640 256C640 362 554 448 448 448C366.5 448 296.8 397.2 268.1 325.6L208.8 317.4L161.2 352H208C234.5 352 256 373.5 256 400C256 426.5 234.5 448 208 448H48C21.49 448 0 426.5 0 400C0 373.5 21.49 352 48 352H106.8L163 311.1L141.5 308.2C115.5 304.6 96 282.3 96 256C96 229.7 115.5 207.4 141.5 203.8L163 200.9L106.8 160H48C21.49 160 0 138.5 0 112H0zM48 96C39.16 96 32 103.2 32 112C32 120.8 39.16 128 48 128H208C216.8 128 224 120.8 224 112C224 103.2 216.8 96 208 96H48zM128 256C128 266.3 135.6 275.1 145.9 276.5L259.4 291.9C257.2 280.3 256 268.3 256 256C256 243.7 257.2 231.7 259.4 220.1L145.9 235.5C135.6 236.9 128 245.7 128 256V256zM48 416H208C216.8 416 224 408.8 224 400C224 391.2 216.8 384 208 384H48C39.16 384 32 391.2 32 400C32 408.8 39.16 416 48 416zM448 416C536.4 416 608 344.4 608 256C608 167.6 536.4 96 448 96C359.6 96 288 167.6 288 256C288 344.4 359.6 416 448 416z"/></svg>
